X:1
T:Title
L:1/8
Q:1/4=120
M:4/4
K:C
V:1 treble nm="Church Organ, Staff"
V:1
 c2 G2 A2 B2 | c>c G2 A2 B2 | c>c E2 F2 G2 | A2 A4 G2 | G2 e2 dc B2 | BB c2 BA G2 | F>E E2 A2 c2 | %7
w: By~E.~H.~Thorne * * *|||||||
 B2 A4 G2 | G2 c2 BA G2 | G2 c2 BA G2 | A>A G2 A2 G2 | A2 B4 B2 | G2 e2- e/ z/ e e2 | %13
w: ||||||
 E2 e2- e/ z/ e e2 | f>f B2 c2 d2 | e2 d4 c2 |] %16
w: |||

